img/subtract-3.svg

<svg fill="none" height="58" viewBox="0 0 57 58" width="57" xmlns="http://www.w3.org/2000/svg"><path clip-rule="evenodd" d="m21.4596.853044c-.5587-.149709-1.1548.010028-1.5639.419036l-19.396941 19.39702c-.4090122.409-.5687493 1.0051-.4190407 1.5638l7.0997817 26.4968c.14971.5587.58612.9952 1.14484 1.1449l26.49676 7.0998c.5587.1497 1.1549-.0101 1.5639-.4191l19.397-19.397c.409-.409.5687-1.0051.419-1.5638l-7.0998-26.49682c-.1497-.55872-.5861-.99513-1.1448-1.14484zm23.3963 23.676256c-2.5458-9.5007-12.3114-15.13893-21.8122-12.5932-9.5007 2.5457-15.13893 12.3113-12.5932 21.8121 2.5457 9.5008 12.3113 15.139 21.8121 12.5933 9.5008-2.5458 15.139-12.3114 12.5933-21.8122z" fill="#fff500" fill-rule="evenodd"/></svg>

<svg width="57" height="58" viewBox="0 0 57 58" fill="none" xmlns="http://www.w3.org/2000/svg">
<path fill-rule="evenodd" clip-rule="evenodd" d="M21.4596 0.853044C20.9009 0.703335 20.3048 0.863072 19.8957 1.27208L0.498759 20.6691C0.0897468 21.0781 -0.0699903 21.6742 0.0797183 22.2329L7.1795 48.7297C7.32921 49.2884 7.76562 49.7249 8.32434 49.8746L34.8211 56.9744C35.3798 57.1241 35.976 56.9643 36.385 56.5553L55.782 37.1583C56.191 36.7493 56.3507 36.1532 56.201 35.5945L49.1012 9.09768C48.9515 8.53896 48.5151 8.10255 47.9564 7.95284L21.4596 0.853044ZM44.8559 24.5293C42.3101 15.0286 32.5445 9.39037 23.0437 11.9361C13.543 14.4818 7.90477 24.2474 10.4505 33.7482C12.9962 43.249 22.7618 48.8872 32.2626 46.3415C41.7634 43.7957 47.4016 34.0301 44.8559 24.5293Z" fill="#FFF500"/>
</svg>
